resources/svg/solid/arrow-from-right.svg

<svg xmlns="http://www.w3.org/2000/svg" fill="currentColor" stroke="none" viewBox="0 0 24 24"><path d="M18 6h2v12h-2zm-8 12v-5h6v-2h-6V6l-6 6z"/></svg>

<svg xmlns="http://www.w3.org/2000/svg" fill="currentColor" stroke="none" viewBox="0 0 24 24"><path d="M18 6H20V18H18zM10 18L10 13 16 13 16 11 10 11 10 6 4 12z"/></svg>
